src/components/Icon/assets/page-download.svg

<svg width="24" height="24" viewBox="0 0 24 24" fill="none" xmlns="http://www.w3.org/2000/svg">
<path fill-rule="evenodd" clip-rule="evenodd" d="M7.00021 4.00012V20.0001H12.0002V22.0001H6.50021C5.67193 22.0001 5.00021 21.3284 5.00021 20.5001V3.50012C5.00021 2.67184 5.67193 2.00012 6.50021 2.00012H11.7702C12.2107 2.00012 12.6304 2.19298 12.9084 2.52427L18.6296 9.19809C18.7446 9.32866 18.8331 9.47664 18.8952 9.63503C19.1524 10.291 18.6688 11.0001 17.9642 11.0001H12.3852C11.6199 11.0001 11.0002 10.3794 11.0002 9.61512V4.00012H7.00021ZM13.0002 9.00014H15.8257L13.0002 5.70422V9.00014ZM19.0002 18.7179V12.9998H17.0002V18.726L14.6291 16.5392L13.2732 18.0095L17.9894 22.3589L22.7271 18.0133L21.3752 16.5394L19.0002 18.7179Z" fill="#65676A"/>
</svg>

<svg xmlns="http://www.w3.org/2000/svg" width="24" height="24" viewBox="0 0 24 24">
    <path fill="#65676A" fill-rule="evenodd" d="M19 13v5.716l2.375-2.177 1.352 1.474-4.738 4.346-4.716-4.35 1.356-1.47L17 18.726V13h2zM11.77 2c.44 0 .86.193 1.138.524l5.722 6.674c.115.13.203.279.265.437.257.656-.226 1.365-.93 1.365h-5.58C11.62 11 11 10.38 11 9.615V4H7v16h5v2H6.5c-.828 0-1.5-.672-1.5-1.5v-17C5 2.672 5.672 2 6.5 2zM13 5.704V9h2.826L13 5.704z"/>
</svg>
